Newaita-dark/.DP/22/tabletconnected.svg

<svg xmlns="http://www.w3.org/2000/svg" xmlns:xlink="http://www.w3.org/1999/xlink" width="22px" height="22px" viewBox="0 0 22 22" version="1.1">
<g id="surface1">
<path style=" stroke:none;fill-rule:nonzero;fill:rgb(93.333334%,93.333334%,93.333334%);fill-opacity:1;" d="M 3.636719 4.265625 C 3.136719 4.265625 2.726562 4.671875 2.726562 5.175781 L 2.726562 17 C 2.726562 17.503906 3.136719 17.910156 3.636719 17.910156 L 18.191406 17.910156 C 18.695312 17.910156 19.101562 17.503906 19.101562 17 L 19.101562 5.175781 C 19.101562 4.671875 18.695312 4.265625 18.191406 4.265625 Z M 5.003906 6.082031 L 16.828125 6.082031 C 17.082031 6.082031 17.28125 6.289062 17.28125 6.539062 L 17.28125 14.726562 C 17.28125 14.976562 17.082031 15.179688 16.828125 15.179688 L 5.003906 15.179688 C 4.75 15.179688 4.546875 14.976562 4.546875 14.726562 L 4.546875 6.539062 C 4.546875 6.289062 4.75 6.082031 5.003906 6.082031 Z M 9.550781 16.089844 L 12.28125 16.089844 C 12.53125 16.089844 12.734375 16.277344 12.734375 16.507812 L 12.734375 16.582031 C 12.734375 16.8125 12.53125 17 12.28125 17 L 9.550781 17 C 9.300781 17 9.09375 16.8125 9.09375 16.582031 L 9.09375 16.507812 C 9.09375 16.277344 9.300781 16.089844 9.550781 16.089844 Z M 9.550781 16.089844 "/>
</g>
</svg>

<svg xmlns="http://www.w3.org/2000/svg" width="22pt" height="22pt" viewBox="0 0 22 22"><path d="M3.637 4.266a.905.905 0 0 0-.907.91V17c0 .504.403.91.907.91H18.19c.504 0 .91-.406.91-.91V5.176a.909.909 0 0 0-.91-.91zm1.367 1.82h11.824c.25 0 .453.2.453.453v8.188c0 .25-.203.453-.453.453H5.004a.454.454 0 0 1-.457-.453V6.539c0-.254.203-.453.457-.453zM9.55 16.09h2.73c.25 0 .453.187.453.418v.074c0 .23-.203.418-.453.418h-2.73c-.254 0-.453-.188-.453-.418v-.074c0-.23.199-.418.453-.418zm0 0" fill="#bdbdbd"/></svg>
